pro/src/icons/stroke-close.svg

<svg width="48" height="48" viewBox="0 0 48 48" fill="none" xmlns="http://www.w3.org/2000/svg">
<path id="icon" fill="currentColor" fill-rule="evenodd" clip-rule="evenodd" d="M5.69372 4.29014C5.29264 3.88935 4.65806 3.90582 4.27634 4.32693C3.89461 4.74804 3.9103 5.41433 4.31138 5.81512L21.7973 23.2888C22.2038 23.695 22.2038 24.3261 21.7973 24.7322L21.7956 24.734L4.41496 42.1866C4.01481 42.5884 4.00066 43.2548 4.38335 43.6749C4.76604 44.0951 5.40066 44.1099 5.80081 43.7081L23.1797 26.2572L23.1806 26.2563C23.567 25.8699 23.8325 25.4068 23.9772 24.9149C24.1249 25.4053 24.393 25.8664 24.7818 26.2504L24.7828 26.2513L42.3093 43.6182C42.712 44.0172 43.3465 43.9979 43.7265 43.5751C44.1065 43.1523 44.0882 42.4861 43.6855 42.0871L26.1574 24.7187L26.1558 24.7171C25.7441 24.3109 25.7444 23.673 26.1499 23.2678L43.6713 5.82038C44.0724 5.41959 44.0881 4.7533 43.7064 4.33219C43.3247 3.91108 42.6901 3.89461 42.289 4.2954L24.7676 21.7428C24.3814 22.1287 24.1157 22.5924 23.971 23.0854C23.8249 22.6009 23.5611 22.145 23.1797 21.7638L5.69372 4.29014Z"/>
</svg>

<svg xmlns="http://www.w3.org/2000/svg" width="48" height="48" fill="none"><path id="icon" fill="currentColor" fill-rule="evenodd" d="M5.694 4.29a.97.97 0 0 0-1.418.037 1.09 1.09 0 0 0 .035 1.488L21.797 23.29a1.007 1.007 0 0 1 0 1.443l-.001.002L4.415 42.187a1.09 1.09 0 0 0-.032 1.488.97.97 0 0 0 1.418.033l17.379-17.45v-.002c.387-.386.652-.85.797-1.341.148.49.416.951.805 1.335v.001L42.31 43.618a.97.97 0 0 0 1.418-.043 1.09 1.09 0 0 0-.041-1.488L26.156 24.72l-.001-.002a1.01 1.01 0 0 1-.006-1.45L43.67 5.82a1.09 1.09 0 0 0 .035-1.488.97.97 0 0 0-1.417-.037L24.768 21.743c-.387.386-.652.85-.797 1.342a3.15 3.15 0 0 0-.791-1.321z" clip-rule="evenodd"/></svg>
